app/icons/quotes-left.svg

﻿<svg xmlns="http://www.w3.org/2000/svg" xmlns:xlink="http://www.w3.org/1999/xlink" viewBox="0 0 50 50" version="1.1" width="50" height="50">
<g id="surface1">
<path style=" " d="M 16 5 C 8.28125 5 2 11.28125 2 19 L 2 41 L 22 41 L 22 21 L 11 21 L 11 19 C 11 16.992188 11.617188 15.195313 12.558594 13.941406 C 13.496094 12.691406 14.703125 12 16 12 L 17 12 L 17 5 Z M 42 5 C 34.28125 5 28 11.28125 28 19 L 28 41 L 48 41 L 48 21 L 37 21 L 37 19 C 37 16.992188 37.617188 15.195313 38.558594 13.941406 C 39.496094 12.691406 40.703125 12 42 12 L 43 12 L 43 5 Z M 15 7.203125 L 15 10.265625 C 13.414063 10.574219 11.96875 11.394531 10.957031 12.746094 C 9.726563 14.386719 9 16.589844 9 19 L 9 23 L 20 23 L 20 39 L 4 39 L 4 19 C 4 12.714844 8.855469 7.734375 15 7.203125 Z M 41 7.203125 L 41 10.265625 C 39.414063 10.574219 37.96875 11.394531 36.957031 12.746094 C 35.726563 14.386719 35 16.589844 35 19 L 35 23 L 46 23 L 46 39 L 30 39 L 30 19 C 30 12.714844 34.855469 7.734375 41 7.203125 Z "/>
</g>
</svg>

<?xml version="1.0" encoding="utf-8"?>
<!-- Generator: Adobe Illustrator 17.0.0, SVG Export Plug-In . SVG Version: 6.00 Build 0)  -->
<!DOCTYPE svg PUBLIC "-//W3C//DTD SVG 1.1//EN" "http://www.w3.org/Graphics/SVG/1.1/DTD/svg11.dtd">
<svg version="1.1" id="Layer_1" xmlns="http://www.w3.org/2000/svg" xmlns:xlink="http://www.w3.org/1999/xlink" x="0px" y="0px"
	 width="50px" height="50px" viewBox="0 0 50 50" enable-background="new 0 0 50 50" xml:space="preserve">
<path d="M11,19c0-2.008,0.617-3.805,1.559-5.059C13.496,12.691,14.703,12,16,12h1V5h-1C8.281,5,2,11.281,2,19v22h20V21H11V19z
	 M20,23v16H4V19C4,12.715,8.855,7.734,15,7.203v3.063c-1.586,0.309-3.031,1.129-4.043,2.48C9.727,14.387,9,16.59,9,19v4H20z M37,21
	v-2c0-2.008,0.617-3.805,1.559-5.059C39.496,12.691,40.703,12,42,12h1V5h-1c-7.719,0-14,6.281-14,14v22h20V21H37z M46,39H30V19
	c0-6.285,4.855-11.266,11-11.797v3.063c-1.586,0.309-3.031,1.129-4.043,2.48C35.727,14.387,35,16.59,35,19v4h11V39z"/>
</svg>
